priv/static/images/7486744.svg

<svg xmlns="http://www.w3.org/2000/svg" width="512" height="512" style="shape-rendering:geometricPrecision;text-rendering:geometricPrecision;image-rendering:optimizeQuality;fill-rule:evenodd;clip-rule:evenodd"><path fill="#728bab" d="M262.5 58.5q-4.842 1.37-10 1 12.801-32.663 48-29.5 15.04 5.33 10.5 20.5-3.096 1.637-6.5.5.677-12.318-11.5-13.5-20.55 2.893-30.5 21" style="opacity:.911"/><path fill="#738bab" d="M262.5 58.5a419 419 0 0 1 49 1.5q7.265 6.57 1 14a10.1 10.1 0 0 1-4 1.5h-56q-7.292-.512-8-8 .734-7.586 8-8 5.158.37 10-1" style="opacity:.946"/><path fill="#738bab" d="M342.5 67.5a18.4 18.4 0 0 1 6 .5q9.973 7.685 14.5 19.5.867 9.139-7.5 5.5-4.316-11.832-14.5-19.5-1.122-3.51 1.5-6" style="opacity:.907"/><path fill="#738bab" d="M252.5 75.5h10q9.145 18.596 30 21 8.348.595 11-7-1.935-7.87-7-14h12a56.3 56.3 0 0 1 4 14q-2.355 17.212-20 16-22.264-2.007-35.5-20a67 67 0 0 1-4.5-10m10 0h34q5.065 6.13 7 14-2.651 7.595-11 7-20.855-2.404-30-21" style="opacity:.917"/><path fill="#728dac" d="M358.5 110.5q5.938-1.383 7 4.5-3.311 13.79-13 24-10.036 4.337-7.5-6.5 9.44-9.386 13.5-22" style="opacity:.89"/><path fill="#738baa" d="M331.5 141.5q9.334 1.119 4 9a136.5 136.5 0 0 1-25 8q-7.671-2.264-3-8.5 12.74-2.66 24-8.5" style="opacity:.906"/><path fill="#728bab" d="M235.5 151.5a61 61 0 0 1 11 .5q2 3.5 0 7a204 204 0 0 0-26 6.5q-5.881-2.12-3-8 8.873-3.952 18-6" style="opacity:.893"/><path fill="#738bab" d="M262.5 150.5q14.45 1.132 29 1.5 4 4 0 8-15.577 1.305-31-1-2.586-5.304 2-8.5" style="opacity:.89"/><path fill="#728bab" d="M206.5 167.5q7.765-1.196 13.5 4a5168 5168 0 0 0 38.5 56.5 8307 8307 0 0 0 154 50.5 543 543 0 0 0 36-52 7.25 7.25 0 0 0-2-2.5A18557 18557 0 0 0 301 176.5q-2.407.901-4 3l-27 40q-8.32 3.682-8-5a3217 3217 0 0 1 30.5-44.5q5.577-3.447 12-2l118 38a246 246 0 0 1 31 11.5q6.108 6.645 2.5 15a2153 2153 0 0 0-34.5 52 2852 2852 0 0 1 39.5 60q3.711 11.82-7.5 16.5a400 400 0 0 1-34 10.5q.25 34.004-.5 68-3.25 9.25-12.5 12.5l-148 44q-7.153.468-14-2l-140-42q-9.25-3.25-12.5-12.5a757 757 0 0 1 0-55q3.096-1.637 6.5-.5a1198 1198 0 0 1 1.5 48.5q.618 5.987 5.5 9.5a12226 12226 0 0 0 148 45q4.06.492 8-1l140-42q8.064-3.06 9.5-11.5a841 841 0 0 0 0-58 8517 8517 0 0 1-98.5 32.5q-9.055 3.699-16.5-2.5a852 852 0 0 1-33.5-51.5q.988-6.124 7-4a3484 3484 0 0 1 31.5 46.5q1.542 2.792 4.5 4a37768 37768 0 0 0 146.5-48q1-2.5 0-5a5601 5601 0 0 0-40.5-58.5 20486 20486 0 0 1-153-50q-4.587-.686-9 1l-122 40q-5.396 1.915-11 1-2.662-5.09 2-8a5839 5839 0 0 0 129-42.5 2128 2128 0 0 1-30.5-46q-2.519-4.52-7-7A18557 18557 0 0 0 64.5 224q-3.701 2.382-.5 5.5A1440 1440 0 0 0 99.5 281a42611 42611 0 0 0 156 50.5 31315 31315 0 0 1 134-43.5q9.226-2.52 7 6.5a10611 10611 0 0 1-138 46 3310 3310 0 0 0-43.5 64q-7.445 6.199-16.5 2.5a18451 18451 0 0 1-145-48q-5.708-6.136-3.5-14.5a1751 1751 0 0 1 31-47q9.48-7.057 8 5l-30 44q-1.114 2.911.5 5.5a37262 37262 0 0 1 146 47.5 7.3 7.3 0 0 0 3-2 3507 3507 0 0 1 40-58.5 21289 21289 0 0 1-156-51A4634 4634 0 0 0 56 234.5q-6.65-12.538 5.5-19.5 72.81-23.355 145-47.5" style="opacity:.92"/><path fill="#728bab" d="M198.5 187.5q3.124-.042 5.5 2a100.2 100.2 0 0 1 0 20q-5.232 4.443-8-2a72.5 72.5 0 0 1 0-17 10.5 10.5 0 0 0 2.5-3" style="opacity:.871"/><path fill="#728cab" d="M203.5 220.5q3.438-.384 6.5 1a37.9 37.9 0 0 0 6 10q1.968 5.584-3.5 7-2.811.166-4.5-2a196 196 0 0 1-6.5-11.5 27.7 27.7 0 0 1 2-4.5" style="opacity:.878"/><path fill="#738bab" d="M253.5 244.5a8896 8896 0 0 1 124 39.5 5225 5225 0 0 1-122 40.5 5225 5225 0 0 1-122-40.5 5056 5056 0 0 0 120-39.5" style="opacity:.981"/></svg>

<?xml version="1.0" encoding="UTF-8"?>
<!DOCTYPE svg PUBLIC "-//W3C//DTD SVG 1.1//EN" "http://www.w3.org/Graphics/SVG/1.1/DTD/svg11.dtd">
<svg xmlns="http://www.w3.org/2000/svg" version="1.1" width="512px" height="512px" style="shape-rendering:geometricPrecision; text-rendering:geometricPrecision; image-rendering:optimizeQuality; fill-rule:evenodd; clip-rule:evenodd" xmlns:xlink="http://www.w3.org/1999/xlink">
<g><path style="opacity:0.911" fill="#728bab" d="M 262.5,58.5 C 259.272,59.4137 255.939,59.7471 252.5,59.5C 261.034,37.7247 277.034,27.8914 300.5,30C 310.527,33.5538 314.027,40.3871 311,50.5C 308.936,51.5914 306.769,51.7581 304.5,51C 304.951,42.7878 301.118,38.2878 293,37.5C 279.3,39.4285 269.134,46.4285 262.5,58.5 Z"/></g>
<g><path style="opacity:0.946" fill="#738bab" d="M 262.5,58.5 C 278.904,58.0446 295.237,58.5446 311.5,60C 316.343,64.3796 316.677,69.0462 312.5,74C 311.255,74.7914 309.922,75.2914 308.5,75.5C 304.5,75.5 300.5,75.5 296.5,75.5C 285.167,75.5 273.833,75.5 262.5,75.5C 259.167,75.5 255.833,75.5 252.5,75.5C 247.638,75.1588 244.972,72.4921 244.5,67.5C 244.989,62.4429 247.656,59.7762 252.5,59.5C 255.939,59.7471 259.272,59.4137 262.5,58.5 Z"/></g>
<g><path style="opacity:0.907" fill="#738bab" d="M 342.5,67.5 C 344.527,67.3379 346.527,67.5045 348.5,68C 355.149,73.1234 359.982,79.6234 363,87.5C 363.578,93.5923 361.078,95.4256 355.5,93C 352.623,85.112 347.789,78.612 341,73.5C 340.252,71.1599 340.752,69.1599 342.5,67.5 Z"/></g>
<g><path style="opacity:0.917" fill="#738bab" d="M 252.5,75.5 C 255.833,75.5 259.167,75.5 262.5,75.5C 268.597,87.8965 278.597,94.8965 292.5,96.5C 298.066,96.8965 301.732,94.5632 303.5,89.5C 302.21,84.2537 299.877,79.587 296.5,75.5C 300.5,75.5 304.5,75.5 308.5,75.5C 310.433,79.9686 311.766,84.6353 312.5,89.5C 310.93,100.975 304.264,106.308 292.5,105.5C 277.657,104.162 265.824,97.4956 257,85.5C 255.214,82.2635 253.714,78.9302 252.5,75.5 Z M 262.5,75.5 C 273.833,75.5 285.167,75.5 296.5,75.5C 299.877,79.587 302.21,84.2537 303.5,89.5C 301.732,94.5632 298.066,96.8965 292.5,96.5C 278.597,94.8965 268.597,87.8965 262.5,75.5 Z"/></g>
<g><path style="opacity:0.89" fill="#728dac" d="M 358.5,110.5 C 362.459,109.578 364.792,111.078 365.5,115C 363.293,124.193 358.959,132.193 352.5,139C 345.809,141.891 343.309,139.725 345,132.5C 351.293,126.243 355.793,118.909 358.5,110.5 Z"/></g>
<g><path style="opacity:0.906" fill="#738baa" d="M 331.5,141.5 C 337.723,142.246 339.056,145.246 335.5,150.5C 327.419,153.971 319.086,156.638 310.5,158.5C 305.386,156.991 304.386,154.157 307.5,150C 315.993,148.227 323.993,145.394 331.5,141.5 Z"/></g>
<g><path style="opacity:0.893" fill="#728bab" d="M 235.5,151.5 C 239.182,151.335 242.848,151.501 246.5,152C 247.833,154.333 247.833,156.667 246.5,159C 237.716,160.591 229.049,162.758 220.5,165.5C 216.579,164.086 215.579,161.42 217.5,157.5C 223.415,154.865 229.415,152.865 235.5,151.5 Z"/></g>
<g><path style="opacity:0.89" fill="#738bab" d="M 262.5,150.5 C 272.134,151.255 281.8,151.755 291.5,152C 294.167,154.667 294.167,157.333 291.5,160C 281.115,160.87 270.782,160.536 260.5,159C 258.776,155.464 259.443,152.631 262.5,150.5 Z"/></g>
<g><path style="opacity:0.92" fill="#728bab" d="M 206.5,167.5 C 211.677,166.703 216.177,168.036 220,171.5C 232.71,190.42 245.543,209.253 258.5,228C 309.667,245.333 361,262.167 412.5,278.5C 425.461,261.938 437.461,244.605 448.5,226.5C 448.023,225.522 447.357,224.689 446.5,224C 398.073,207.969 349.573,192.136 301,176.5C 299.395,177.101 298.062,178.101 297,179.5C 288,192.833 279,206.167 270,219.5C 264.454,221.954 261.787,220.288 262,214.5C 272.043,199.58 282.21,184.747 292.5,170C 296.218,167.702 300.218,167.035 304.5,168C 343.833,180.667 383.167,193.333 422.5,206C 433.137,209.155 443.47,212.988 453.5,217.5C 457.572,221.93 458.405,226.93 456,232.5C 444.252,249.662 432.752,266.995 421.5,284.5C 434.915,304.329 448.082,324.329 461,344.5C 463.474,352.38 460.974,357.88 453.5,361C 442.3,365.012 430.966,368.512 419.5,371.5C 419.667,394.169 419.5,416.836 419,439.5C 416.833,445.667 412.667,449.833 406.5,452C 357.167,466.667 307.833,481.333 258.5,496C 253.731,496.312 249.065,495.645 244.5,494C 197.833,480 151.167,466 104.5,452C 98.3333,449.833 94.1667,445.667 92,439.5C 91.3333,421.167 91.3333,402.833 92,384.5C 94.0639,383.409 96.2305,383.242 98.5,384C 99.3255,400.093 99.8255,416.259 100,432.5C 100.412,436.491 102.246,439.658 105.5,442C 154.718,457.306 204.052,472.306 253.5,487C 256.207,487.328 258.874,486.995 261.5,486C 308.167,472 354.833,458 401.5,444C 406.876,441.96 410.043,438.127 411,432.5C 411.667,413.167 411.667,393.833 411,374.5C 378.257,385.525 345.423,396.359 312.5,407C 306.463,409.466 300.963,408.632 296,404.5C 284.188,387.696 273.021,370.53 262.5,353C 263.159,348.918 265.492,347.584 269.5,349C 280.124,364.414 290.624,379.914 301,395.5C 302.028,397.361 303.528,398.695 305.5,399.5C 354.386,383.593 403.22,367.593 452,351.5C 452.667,349.833 452.667,348.167 452,346.5C 438.623,326.913 425.123,307.413 411.5,288C 360.438,271.535 309.438,254.868 258.5,238C 255.442,237.542 252.442,237.876 249.5,239C 208.833,252.333 168.167,265.667 127.5,279C 123.903,280.277 120.236,280.61 116.5,280C 114.725,276.606 115.392,273.94 118.5,272C 161.682,258.328 204.682,244.161 247.5,229.5C 237.137,214.302 226.97,198.969 217,183.5C 215.321,180.487 212.987,178.154 210,176.5C 161.427,192.136 112.927,207.969 64.5,224C 62.0323,225.588 61.8657,227.422 64,229.5C 75.4631,246.928 87.2964,264.094 99.5,281C 151.469,297.934 203.469,314.767 255.5,331.5C 300.136,316.899 344.802,302.399 389.5,288C 395.651,286.32 397.984,288.487 396.5,294.5C 350.654,310.132 304.654,325.466 258.5,340.5C 243.753,361.66 229.253,382.994 215,404.5C 210.037,408.632 204.537,409.466 198.5,407C 150.082,391.194 101.749,375.194 53.5,359C 49.6951,354.909 48.5284,350.076 50,344.5C 60.0849,328.662 70.4182,312.995 81,297.5C 87.3209,292.796 89.9875,294.462 89,302.5C 79,317.167 69,331.833 59,346.5C 58.2571,348.441 58.4238,350.274 59.5,352C 108.203,367.734 156.87,383.568 205.5,399.5C 206.672,399.081 207.672,398.415 208.5,397.5C 221.638,377.863 234.971,358.363 248.5,339C 196.427,322.198 144.427,305.198 92.5,288C 80.4569,270.08 68.2903,252.247 56,234.5C 51.567,226.141 53.4003,219.641 61.5,215C 110.04,199.43 158.374,183.597 206.5,167.5 Z"/></g>
<g><path style="opacity:0.871" fill="#728bab" d="M 198.5,187.5 C 200.582,187.472 202.416,188.139 204,189.5C 204.667,196.167 204.667,202.833 204,209.5C 200.512,212.462 197.845,211.795 196,207.5C 195.333,201.833 195.333,196.167 196,190.5C 197.045,189.627 197.878,188.627 198.5,187.5 Z"/></g>
<g><path style="opacity:0.878" fill="#728cab" d="M 203.5,220.5 C 205.792,220.244 207.959,220.577 210,221.5C 211.497,225.165 213.497,228.498 216,231.5C 217.312,235.223 216.145,237.556 212.5,238.5C 210.626,238.61 209.126,237.944 208,236.5C 205.7,232.732 203.533,228.898 201.5,225C 202.044,223.415 202.711,221.915 203.5,220.5 Z"/></g>
<g><path style="opacity:0.981" fill="#738bab" d="M 253.5,244.5 C 294.901,257.355 336.234,270.522 377.5,284C 337.039,297.987 296.373,311.487 255.5,324.5C 214.627,311.487 173.961,297.987 133.5,284C 173.77,271.298 213.77,258.132 253.5,244.5 Z"/></g>
</svg>
